**harmony	**harte	**kern	**silbe	**kern	**silbe	**rhyme	**timestamp	**phrase
*M4/4	*M4/4	*ICvox	*	*ICvox	*	*	*	*
*	*	*VRlead	*	*VRharmonize	*	*	*	*
*	*	*Hstimme	*	*Nstimme	*	*	*	*
*G:	*G:	*G:	*	*G:	*	*	*	*
*	*	*M4/4	*	*M4/4	*	*	*	*
*	*	*clefG2	*	*clefG2	*	*	*	*
1r;	1r	r;	.	r;	.	.	0	.
=1	=1	=1	=1	=1	=1	=1	=1	=1
*>Letter>A	*>Letter>A	*>Letter>A	*>Letter>A	*>Letter>A	*>Letter>A	*>Letter>A	*>Letter>A	*>Letter>A
*>Label>Intro	*>Label>Intro	*>Label>Intro	*>Label>Intro	*>Label>Intro	*>Label>Intro	*>Label>Intro	*>Label>Intro	*>Label>Intro
1GM	G:maj	1r	.	1r	.	.	0.418	newline
=2	=2	=2	=2	=2	=2	=2	=2	=2
1CM	C:maj	1r	.	1r	.	.	2.066	.
=3	=3	=3	=3	=3	=3	=3	=3	=3
1GM	G:maj	1r	.	1r	.	.	3.714	.
=4	=4	=4	=4	=4	=4	=4	=4	=4
1CM	C:maj	1r	.	1r	.	.	5.363	.
=5	=5	=5	=5	=5	=5	=5	=5	=5
1GM	G:maj	1r	.	1r	.	.	7.011	newline
=6	=6	=6	=6	=6	=6	=6	=6	=6
1CM	C:maj	1r	.	1r	.	.	8.629	.
=7	=7	=7	=7	=7	=7	=7	=7	=7
1GM	G:maj	1r	.	1r	.	.	10.248	.
=8	=8	=8	=8	=8	=8	=8	=8	=8
1GM	G:maj	1r	.	1r	.	.	11.866	.
=9	=9	=9	=9	=9	=9	=9	=9	=9
*>Letter>B	*>Letter>B	*>Letter>B	*>Letter>B	*>Letter>B	*>Letter>B	*>Letter>B	*>Letter>B	*>Letter>B
*>Label>Verse	*>Label>Verse	*>Label>Verse	*>Label>Verse	*>Label>Verse	*>Label>Verse	*>Label>Verse	*>Label>Verse	*>Label>Verse
1GM	G:maj	2d	Love	2G	Love	.	13.485	newline
.	.	4d	love	4G	love	.	.	.
.	.	8f	me	8d	me	.	.	.
.	.	[8g	do	[8c	do	A	.	.
=10	=10	=10	=10	=10	=10	=10	=10	=10
1CM	C:maj	8g]	_	8c]	_	.	15.11	.
.	.	8r	.	8r	.	.	.	.
.	.	4r	.	4r	.	.	.	.
.	.	4r	.	4r	.	.	.	.
.	.	4f	You	4G	You	.	.	.
=11	=11	=11	=11	=11	=11	=11	=11	=11
1GM	G:maj	2d	know	2G	know	.	16.735	.
.	.	4d	I	4G	I	.	.	.
.	.	8f	love	8d	love	.	.	.
.	.	[8g	you	[8c	you	A	.	.
=12	=12	=12	=12	=12	=12	=12	=12	=12
1CM	C:maj	8g]	_	8c]	_	.	18.36	.
.	.	8r	.	8r	.	.	.	.
.	.	4r	.	4r	.	.	.	.
.	.	4r	.	4r	.	.	.	.
.	.	4f	I'll	4G	I'll	.	.	.
=13	=13	=13	=13	=13	=13	=13	=13	=13
1GM	G:maj	2d	al-	2G	al-	.	19.985	newline
.	.	4d	-ways	4G	-ways	.	.	.
.	.	8f	be	8d	be	.	.	.
.	.	[8g	true	[8c	true	A	.	.
=14	=14	=14	=14	=14	=14	=14	=14	=14
1CM	C:maj	8g]	_	8c]	_	.	21.636	.
.	.	8r	.	8r	.	.	.	.
.	.	4r	.	4r	.	.	.	.
.	.	4r	.	4r	.	.	.	.
.	.	4f	so	4d	so	.	.	.
=15	=15	=15	=15	=15	=15	=15	=15	=15
1CM	C:maj	2g	please	2e	please	.	23.286	.
.	.	4g	_	4d	_	.	.	.
.	.	4g	_	4c	_	.	.	.
=16	=16	=16	=16	=16	=16	=16	=16	=16
1CM	C:maj	[1g	_	[1e	_	.	24.937	.
=17	=17	=17	=17	=17	=17	=17	=17	=17
1CM	C:maj	8g]	_	8e]	_	.	26.588	.
.	.	4.r	.	4.r	.	.	.	.
.	.	4G	Love	2r	.	.	.	.
.	.	4G	me	.	.	.	.	.
=18	=18	=18	=18	=18	=18	=18	=18	=18
*>Letter>A	*>Letter>A	*>Letter>A	*>Letter>A	*>Letter>A	*>Letter>A	*>Letter>A	*>Letter>A	*>Letter>A
*>Label>Interlude	*>Label>Interlude	*>Label>Interlude	*>Label>Interlude	*>Label>Interlude	*>Label>Interlude	*>Label>Interlude	*>Label>Interlude	*>Label>Interlude
1GM	G:maj	8B-	do	1r	.	A	28.238	newline
.	.	2..G	_	.	.	.	.	.
=19	=19	=19	=19	=19	=19	=19	=19	=19
1CM	C:maj	4r	.	1r	.	.	29.872	.
.	.	8d-	Woh	.	.	.	.	.
.	.	4c	_	.	.	.	.	.
.	.	4r	.	.	.	.	.	.
.	.	[8B-	Love	.	.	.	.	.
=20	=20	=20	=20	=20	=20	=20	=20	=20
1GM	G:maj	8B-]	_	1r	.	.	31.507	.
.	.	4G	me	.	.	.	.	.
.	.	[8G	do	.	.	A	.	.
.	.	2G]	_	.	.	.	.	.
=21	=21	=21	=21	=21	=21	=21	=21	=21
1CM	C:maj	1r	.	1r	.	.	33.141	.
=22	=22	=22	=22	=22	=22	=22	=22	=22
*>Letter>B	*>Letter>B	*>Letter>B	*>Letter>B	*>Letter>B	*>Letter>B	*>Letter>B	*>Letter>B	*>Letter>B
*>Label>Verse	*>Label>Verse	*>Label>Verse	*>Label>Verse	*>Label>Verse	*>Label>Verse	*>Label>Verse	*>Label>Verse	*>Label>Verse
1GM	G:maj	2d	Love	2G	Love	.	34.775	newline
.	.	4d	love	4G	love	.	.	.
.	.	8f	me	8d	me	.	.	.
.	.	[8g	do	[8c	do	A	.	.
=23	=23	=23	=23	=23	=23	=23	=23	=23
1CM	C:maj	8g]	_	8c]	_	.	36.422	.
.	.	8r	.	8r	.	.	.	.
.	.	4r	.	4r	.	.	.	.
.	.	4r	.	4r	.	.	.	.
.	.	4f	You	4G	You	.	.	.
=24	=24	=24	=24	=24	=24	=24	=24	=24
1GM	G:maj	2d	know	2G	know	.	38.069	.
.	.	4d	I	4G	I	.	.	.
.	.	8f	love	8d	love	.	.	.
.	.	[8g	you	[8c	you	A	.	.
=25	=25	=25	=25	=25	=25	=25	=25	=25
1CM	C:maj	8g]	_	8c]	_	.	39.716	.
.	.	8r	.	8r	.	.	.	.
.	.	4r	.	4r	.	.	.	.
.	.	4r	.	4r	.	.	.	.
.	.	4f	I'll	4G	I'll	.	.	.
=26	=26	=26	=26	=26	=26	=26	=26	=26
1GM	G:maj	2d	al-	2G	al-	.	41.363	newline
.	.	4d	-ways	4G	-ways	.	.	.
.	.	8f	be	8d	be	.	.	.
.	.	[8g	true	[8c	true	A	.	.
=27	=27	=27	=27	=27	=27	=27	=27	=27
1CM	C:maj	8g]	_	8c]	_	.	43.012	.
.	.	8r	.	8r	.	.	.	.
.	.	4r	.	4r	.	.	.	.
.	.	4r	.	4r	.	.	.	.
.	.	4f	So	4d	So	.	.	.
=28	=28	=28	=28	=28	=28	=28	=28	=28
1CM	C:maj	2g	please	2e	please	.	44.661	.
.	.	4g	_	4d	_	.	.	.
.	.	4g	_	4c	_	.	.	.
=29	=29	=29	=29	=29	=29	=29	=29	=29
1CM	C:maj	[1g	_	[1e	_	.	46.31	.
=30	=30	=30	=30	=30	=30	=30	=30	=30
1CM	C:maj	8g]	_	8e]	_	.	47.958	.
.	.	4.r	.	4.r	.	.	.	.
.	.	4G	Love	2r	.	.	.	.
.	.	4G	me	.	.	.	.	.
=31	=31	=31	=31	=31	=31	=31	=31	=31
*>Letter>A2	*>Letter>A2	*>Letter>A2	*>Letter>A2	*>Letter>A2	*>Letter>A2	*>Letter>A2	*>Letter>A2	*>Letter>A2
*>Label>Interlude	*>Label>Interlude	*>Label>Interlude	*>Label>Interlude	*>Label>Interlude	*>Label>Interlude	*>Label>Interlude	*>Label>Interlude	*>Label>Interlude
1GM	G:maj	8B-	do	1r	.	A	49.607	newline
.	.	2..G	_	.	.	.	.	.
=32	=32	=32	=32	=32	=32	=32	=32	=32
1CM	C:maj	4r	.	1r	.	.	51.224	.
.	.	8d-	Woh	.	.	.	.	.
.	.	4c	_	.	.	.	.	.
.	.	4r	.	.	.	.	.	.
.	.	[8B-	love	.	.	.	.	.
=33	=33	=33	=33	=33	=33	=33	=33	=33
1GM	G:maj	8B-]	_	1r	.	.	52.841	.
.	.	4G	me	.	.	.	.	.
.	.	[8G	do	.	.	A	.	.
.	.	2G]	_	.	.	.	.	.
=34	=34	=34	=34	=34	=34	=34	=34	=34
1GM	G:maj	1r	.	1r	.	.	54.458	.
=35	=35	=35	=35	=35	=35	=35	=35	=35
*>Letter>C	*>Letter>C	*>Letter>C	*>Letter>C	*>Letter>C	*>Letter>C	*>Letter>C	*>Letter>C	*>Letter>C
*>Label>Bridge	*>Label>Bridge	*>Label>Bridge	*>Label>Bridge	*>Label>Bridge	*>Label>Bridge	*>Label>Bridge	*>Label>Bridge	*>Label>Bridge
1DM	D:maj	2A	Some-	1r	.	.	56.076	newline
.	.	4A	-one	.	.	.	.	.
.	.	4G	to	.	.	.	.	.
=36	=36	=36	=36	=36	=36	=36	=36	=36
1DM	D:maj	2.F#	love	1r	.	.	57.708	.
.	.	4r	.	.	.	.	.	.
=37	=37	=37	=37	=37	=37	=37	=37	=37
1CM	C:maj	2g	Some-	2G	Some-	.	59.34	.
.	.	4f	-bo-	4F	-bo-	.	.	.
.	.	4c	-dy	4C	-dy	.	.	.
=38	=38	=38	=38	=38	=38	=38	=38	=38
1GM	G:maj	4B-	new	2.GG	new	A	60.973	.
.	.	2G	_	.	.	.	.	.
.	.	4r	.	4r	.	.	.	.
=39	=39	=39	=39	=39	=39	=39	=39	=39
1DM	D:maj	2A	Some-	1r	.	.	62.605	newline
.	.	4A	-one	.	.	.	.	.
.	.	4G	to	.	.	.	.	.
=40	=40	=40	=40	=40	=40	=40	=40	=40
1DM	D:maj	2.F#	love	1r	.	.	64.248	.
.	.	4r	.	.	.	.	.	.
=41	=41	=41	=41	=41	=41	=41	=41	=41
1CM	C:maj	2g	Some-	2G	Some-	.	65.89	.
.	.	4f	-one	4F	-one	.	.	.
.	.	4c	like	4C	like	.	.	.
=42	=42	=42	=42	=42	=42	=42	=42	=42
1GM	G:maj	4G	you	4GG	you	A	67.532	.
.	.	4r	.	4r	.	.	.	.
.	.	2r	.	2r	.	.	.	.
=43	=43	=43	=43	=43	=43	=43	=43	=43
*>Letter>B	*>Letter>B	*>Letter>B	*>Letter>B	*>Letter>B	*>Letter>B	*>Letter>B	*>Letter>B	*>Letter>B
*>Label>Verse	*>Label>Verse	*>Label>Verse	*>Label>Verse	*>Label>Verse	*>Label>Verse	*>Label>Verse	*>Label>Verse	*>Label>Verse
1GM	G:maj	2d	Love	2G	Love	.	69.174	newline
.	.	4d	love	4G	love	.	.	.
.	.	8f	me	8d	me	.	.	.
.	.	[8g	do	[8c	do	A	.	.
=44	=44	=44	=44	=44	=44	=44	=44	=44
1CM	C:maj	8g]	_	8c]	_	.	70.808	.
.	.	8r	.	8r	.	.	.	.
.	.	4r	.	4r	.	.	.	.
.	.	4r	.	4r	.	.	.	.
.	.	4f	You	4G	You	A	.	.
=45	=45	=45	=45	=45	=45	=45	=45	=45
1GM	G:maj	2d	know	2G	know	.	72.441	.
.	.	4d	I	4G	I	.	.	.
.	.	8f	love	8d	love	.	.	.
.	.	[8g	you	[8c	you	A	.	.
=46	=46	=46	=46	=46	=46	=46	=46	=46
1CM	C:maj	8g]	_	8c]	_	.	74.075	.
.	.	8r	.	8r	.	.	.	.
.	.	4r	.	4r	.	.	.	.
.	.	4r	.	4r	.	.	.	.
.	.	4f	I'll	4G	I'll	.	.	.
=47	=47	=47	=47	=47	=47	=47	=47	=47
1GM	G:maj	2d	al-	2G	al-	.	75.708	newline
.	.	4d	-ways	4G	-ways	.	.	.
.	.	8f	be	8d	be	.	.	.
.	.	[8g	true	[8c	true	A	.	.
=48	=48	=48	=48	=48	=48	=48	=48	=48
1CM	C:maj	8g]	_	8c]	_	.	77.354	.
.	.	8r	.	8r	.	.	.	.
.	.	4r	.	4r	.	.	.	.
.	.	4r	.	4r	.	.	.	.
.	.	4f	So	4d	So	.	.	.
=49	=49	=49	=49	=49	=49	=49	=49	=49
1CM	C:maj	2g	please	2e	please	.	79.001	.
.	.	4g	_	4d	_	.	.	.
.	.	4g	_	4c	_	.	.	.
=50	=50	=50	=50	=50	=50	=50	=50	=50
1CM	C:maj	[1g	_	[1e	_	.	80.647	.
=51	=51	=51	=51	=51	=51	=51	=51	=51
1CM	C:maj	8g]	_	8e]	_	.	82.293	.
.	.	4.r	.	4.r	.	.	.	.
.	.	4G	Love	2r	.	.	.	.
.	.	4G	me	.	.	.	.	.
=52	=52	=52	=52	=52	=52	=52	=52	=52
*>Letter>A2	*>Letter>A2	*>Letter>A2	*>Letter>A2	*>Letter>A2	*>Letter>A2	*>Letter>A2	*>Letter>A2	*>Letter>A2
*>Label>Interlude	*>Label>Interlude	*>Label>Interlude	*>Label>Interlude	*>Label>Interlude	*>Label>Interlude	*>Label>Interlude	*>Label>Interlude	*>Label>Interlude
1GM	G:maj	8B-	do	1r	.	A	83.94	newline
.	.	2..G	_	.	.	.	.	.
=53	=53	=53	=53	=53	=53	=53	=53	=53
1CM	C:maj	4r	.	1r	.	.	85.569	.
.	.	8d-	Woh	.	.	.	.	.
.	.	4.c	_	.	.	.	.	.
.	.	4r	.	.	.	.	.	.
=54	=54	=54	=54	=54	=54	=54	=54	=54
1GM	G:maj	8B-	love	1r	.	.	87.198	.
.	.	4G	me	.	.	.	.	.
.	.	[8G	do	.	.	A	.	.
.	.	2G_	_	.	.	.	.	.
=55	=55	=55	=55	=55	=55	=55	=55	=55
1GM	G:maj	4G]	_	1r	.	.	88.827	.
.	.	4r	.	.	.	.	.	.
.	.	2r	.	.	.	.	.	.
=56	=56	=56	=56	=56	=56	=56	=56	=56
*>Letter>C	*>Letter>C	*>Letter>C	*>Letter>C	*>Letter>C	*>Letter>C	*>Letter>C	*>Letter>C	*>Letter>C
*>Label>Solo	*>Label>Solo	*>Label>Solo	*>Label>Solo	*>Label>Solo	*>Label>Solo	*>Label>Solo	*>Label>Solo	*>Label>Solo
1DM	D:maj	1r	.	1r	.	.	90.456	newline
=57	=57	=57	=57	=57	=57	=57	=57	=57
1DM	D:maj	1r	.	1r	.	.	92.056	.
=58	=58	=58	=58	=58	=58	=58	=58	=58
1CM	C:maj	1r	.	1r	.	.	93.655	.
=59	=59	=59	=59	=59	=59	=59	=59	=59
1GM	G:maj	1r	.	1r	.	.	95.254	.
=60	=60	=60	=60	=60	=60	=60	=60	=60
1DM	D:maj	1r	.	1r	.	.	96.854	newline
=61	=61	=61	=61	=61	=61	=61	=61	=61
1DM	D:maj	1r	.	1r	.	.	98.467	.
=62	=62	=62	=62	=62	=62	=62	=62	=62
1CM	C:maj	1r	.	1r	.	.	100.081	.
=63	=63	=63	=63	=63	=63	=63	=63	=63
1GM	G:maj	1r	.	1r	.	.	101.694	.
=64	=64	=64	=64	=64	=64	=64	=64	=64
*>Letter>A3	*>Letter>A3	*>Letter>A3	*>Letter>A3	*>Letter>A3	*>Letter>A3	*>Letter>A3	*>Letter>A3	*>Letter>A3
*>Label>Trans	*>Label>Trans	*>Label>Trans	*>Label>Trans	*>Label>Trans	*>Label>Trans	*>Label>Trans	*>Label>Trans	*>Label>Trans
1GM	G:maj	1r	.	1r	.	.	103.308	newline
=65	=65	=65	=65	=65	=65	=65	=65	=65
1GM	G:maj	1r	.	1r	.	.	104.932	.
=66	=66	=66	=66	=66	=66	=66	=66	=66
1GM	G:maj	1r	.	1r	.	.	106.556	.
=67	=67	=67	=67	=67	=67	=67	=67	=67
2GM	G:maj	1r	.	1r	.	.	108.18	.
2DM	D:maj	.	.	.	.	.	108.992	.
=68	=68	=68	=68	=68	=68	=68	=68	=68
*>Letter>B	*>Letter>B	*>Letter>B	*>Letter>B	*>Letter>B	*>Letter>B	*>Letter>B	*>Letter>B	*>Letter>B
*>Label>Verse	*>Label>Verse	*>Label>Verse	*>Label>Verse	*>Label>Verse	*>Label>Verse	*>Label>Verse	*>Label>Verse	*>Label>Verse
1GM	G:maj	2d	Love	2G	Love	.	109.804	newline
.	.	4d	love	4G	love	.	.	.
.	.	8f	me	8d	me	.	.	.
.	.	[8g	do	[8c	do	A	.	.
=69	=69	=69	=69	=69	=69	=69	=69	=69
1CM	C:maj	8g]	_	8c]	_	.	111.402	.
.	.	8r	.	8r	.	.	.	.
.	.	4r	.	4r	.	.	.	.
.	.	4r	.	4r	.	.	.	.
.	.	4f	You	4G	You	A	.	.
=70	=70	=70	=70	=70	=70	=70	=70	=70
1GM	G:maj	2d	know	2G	know	.	113	.
.	.	4d	I	4G	I	.	.	.
.	.	8f	love	8d	love	.	.	.
.	.	[8g	you	[8c	you	A	.	.
=71	=71	=71	=71	=71	=71	=71	=71	=71
1CM	C:maj	8g]	_	8c]	_	.	114.598	.
.	.	8r	.	8r	.	.	.	.
.	.	4r	.	4r	.	.	.	.
.	.	4r	.	4r	.	.	.	.
.	.	4f	I'll	4G	I'll	.	.	.
=72	=72	=72	=72	=72	=72	=72	=72	=72
1GM	G:maj	2d	al-	2G	al-	.	116.197	newline
.	.	4d	-ways	4G	-ways	.	.	.
.	.	8f	be	8d	be	.	.	.
.	.	[8g	true	[8c	true	A	.	.
=73	=73	=73	=73	=73	=73	=73	=73	=73
1CM	C:maj	8g]	_	8c]	_	.	117.829	.
.	.	8r	.	8r	.	.	.	.
.	.	4r	.	4r	.	.	.	.
.	.	4r	.	4r	.	.	.	.
.	.	4f	So	4d	So	.	.	.
=74	=74	=74	=74	=74	=74	=74	=74	=74
1CM	C:maj	2g	please	2e	please	.	119.462	.
.	.	4g	_	4d	_	.	.	.
.	.	4g	_	4c	_	.	.	.
=75	=75	=75	=75	=75	=75	=75	=75	=75
1CM	C:maj	[1g	_	[1e	_	.	121.095	.
=76	=76	=76	=76	=76	=76	=76	=76	=76
1CM	C:maj	8g]	_	8e]	_	.	122.728	.
.	.	4.r	.	4.r	.	.	.	.
.	.	4G	Love	2r	.	.	.	.
.	.	4G	me	.	.	.	.	.
=77	=77	=77	=77	=77	=77	=77	=77	=77
*>Letter>A	*>Letter>A	*>Letter>A	*>Letter>A	*>Letter>A	*>Letter>A	*>Letter>A	*>Letter>A	*>Letter>A
*>Label>Outro	*>Label>Outro	*>Label>Outro	*>Label>Outro	*>Label>Outro	*>Label>Outro	*>Label>Outro	*>Label>Outro	*>Label>Outro
1GM	G:maj	8B-	do	1r	.	A	124.36	newline
.	.	2..G	_	.	.	.	.	.
=78	=78	=78	=78	=78	=78	=78	=78	=78
1CM	C:maj	4r	.	1r	.	.	125.971	.
.	.	8d-	Woh	.	.	.	.	.
.	.	4c	_	.	.	.	.	.
.	.	4r	.	.	.	.	.	.
.	.	[8B-	love	.	.	.	.	.
=79	=79	=79	=79	=79	=79	=79	=79	=79
1GM	G:maj	8B-]	_	1r	.	.	127.581	.
.	.	4G	me	.	.	.	.	.
.	.	[8G	do	.	.	A	.	.
.	.	2G]	_	.	.	.	.	.
=80	=80	=80	=80	=80	=80	=80	=80	=80
1CM	C:maj	4.r	.	1r	.	.	129.191	.
.	.	2g	Yeah	.	.	.	.	.
.	.	[8b-	love	.	.	.	.	.
=81	=81	=81	=81	=81	=81	=81	=81	=81
*>Label>>Fadeout	*>Label>>Fadeout	*>Label>>Fadeout	*>Label>>Fadeout	*>Label>>Fadeout	*>Label>>Fadeout	*>Label>>Fadeout	*>Label>>Fadeout	*>Label>>Fadeout
1GM	G:maj	8b-]	_	1r	.	.	130.802	newline
.	.	4g	me	.	.	.	.	.
.	.	[8g	do	.	.	A	.	.
.	.	4g]	_	.	.	.	.	.
.	.	4r	.	.	.	.	.	.
=82	=82	=82	=82	=82	=82	=82	=82	=82
1CM	C:maj	4r	.	1r	.	.	132.25	.
.	.	8d-	Woh	.	.	.	.	.
.	.	4.c	_	.	.	.	.	.
.	.	4r	.	.	.	.	.	.
=83	=83	=83	=83	=83	=83	=83	=83	=83
1GM	G:maj	8B-	love	1r	.	.	133.698	.
.	.	4G	me	.	.	.	.	.
.	.	[8G	do	.	.	A	.	.
.	.	2G]	_	.	.	.	.	.
=84	=84	=84	=84	=84	=84	=84	=84	=84
1CM	C:maj	4.r	.	1r	.	.	135.146	.
.	.	4.B-	Yeah	.	.	.	.	.
.	.	4r	.	.	.	.	.	.
=85	=85	=85	=85	=85	=85	=85	=85	=85
1GM	G:maj	1r	.	1r	.	.	136.594	.
1r;	1r	r;	.	r;	.	.	138.043	.
1r;	1r	r;	.	r;	.	.	142.811	.
*-	*-	*-	*-	*-	*-	*-	*-	*-
!!!BillboardChartDate: 1964/07/11
!!!BillboardPeak: 1
!!!BillboardWeeksOnChart: 14
!!!COC: The Beatles
!!!ENC: Nathaniel Condit-Schultz
!!!EST: Awating manual error checking and editing.
!!!OTL: Love Me Do
!!!RDF**chordsym: original McGill chord annotation + (implied pitch class set, with bass pitch in first position)
!!!RDF**harmony: **recip + pitch class of root + harmonic quality
!!!RDF**leadinstrument: original McGill primary instrumentation annotation
!!!RDF**phrase: newline = linebreak in original McGill transcription
!!!RDF**timestamp: McGill audio timestamp in seconds
!!!RDT: 2017/01/12/
!!!SampleActualRank: 24
!!!SampleID#: 0050
!!!SampleTargetRank: 23
!!!MBID: 1f518811-7cf9-4bdc-a656-0958e130f312